X:1
T:Title
%%score { ( 1 3 ) | ( 2 4 ) }
L:1/8
M:3/4
K:Eb
V:1 treble nm="Grand Piano"
V:3 treble 
V:2 bass 
V:4 bass 
V:1
 z2 z2 B,2 | G4 z2 | G4 z2 | G2 F2 E2 | B6- | B6- | B4 z2 | G4[K:bass][K:treble] z2 | G4 [B,G]2 | %9
 [B,G]2 [A,F]2 [A,B,]2 | E6- | E6- | E4 z2 | G4 z2 | G4 z2 | G2 F2 E2 | B6- | B6- | B4 z2 | %19
 G4[K:bass][K:treble] z2 | G4 [B,G]2 | [B,G]2 [A,F]2[K:bass] [A,B,]2 | E6- | E6- | %24
 E4[K:treble] z2 | e4 z2 | [CEAc]4 [Bd]2 | [CEAc]4 [B,EGB]2 | [G,B,EG]4 [B,EGB]2 | %29
 [B,EGB]4 [A,B,FA]2 | [A,B,DF]4 [B,DAc]2 | [CEAc]4 [B,EGB]2 | [G,B,EG]4 [B,EGB]2 | %33
 [CEAc]4 [CEAc]2 | [CEBd]4 [CEAc]2 | [B,EGB]4 [FB]2 | B4 G2 | G4 F2 | z2 B4- | B6- | B4 z2 | %41
 G4 F2 |[M:2/4] E4 |] %43
V:2
 z6 | z2 z2 [E,B,]2 | z2 z2 [E,B,]2 | B,2 [E,A,]2 [E,G,]2 | z2 z2 [E,B,]2 | B,2 A,2 [E,G,]2 | %6
 [E,G,]4 z2 | z2 z2 [B,,B,]2 | z2 B,,2 B,,2 | z2 B,,2 B,,2 | z2 E,2 E,2 | z2 F,2 [E,A,]2 | %12
 [E,G,]4 z2 | z2 z2 [E,B,]2 | E,2 z2 B,2 | B,2 [E,A,]2 [E,G,]2 | z2 z2 [E,B,]2 | B,2 A,2 [E,G,]2 | %18
 [E,G,]4 z2 | z2 z2 [B,,B,]2 | z2 B,,2 B,,2 | z2 B,,2 B,,2 | E,,4 [E,G,]2 | z2 F,2 [E,A,]2 | %24
 [E,G,]4 [E,,E,B,EG]2 | [CEc]4 [A,CE]2 | z2 A,2 [A,CE]2 | z2 E,2 E,2 | z2 E,2 E,2 | z2 B,,2 B,,2 | %30
 z2 B,,2 B,,2 | z2 E,2 E,2 | z2 E,2 E,2 | z2 A,2 A,2 | z2 A,2 A,2 | z2 E,2 [E,A,B,]2 | %36
 [E,,E,G,B,E]4 [E,B,]2 | [B,,B,]4 [B,,A,B,]2 | [E,G,B,]4 [E,B,]2 | [E,A,]4 [E,G,]2 | %40
 [E,G,]4 [B,,B,]2 | [B,,B,]4 [B,,A,B,]2 |[M:2/4] [E,G,B,]4 |] %43
V:3
 x6 | z2 E,2 G2 | z2 E,2 G2 | x6 | z2 E,2 G2 | G2 F2 E2 | B,4 B,2 | z2[K:bass] B,,2[K:treble] G2 | %8
 x6 | x6 | z2 z2 [G,B,]2 | [G,B,]2 A,2 C2 | B,4 B,2 | z2 E,2 G2 | z2 E,2 G2 | x6 | z2 E,2 G2 | %17
 G2 F2 E2 | B,4 B,2 | z2[K:bass] B,,2[K:treble] G2 | x6 | x4[K:bass] x2 | z2 E,2 B,2 | G,2 A,2 C2 | %24
 B,4[K:treble] e2 | z2 A,2 [Bd]2 | x6 | x6 | x6 | x6 | x6 | x6 | x6 | x6 | x6 | x6 | x6 | x6 | %38
 E2 z2 G2 | F4 E2 | B,4 G2 | x6 |[M:2/4] x4 |] %43
V:4
 x6 | E,,6- | E,,6- | E,,6- | E,,4 z2 | E,4 z2 | x6 | E,,6 | B,,,6 | B,,,6 | E,,4 z2 | E,4 z2 | %12
 x6 | E,,6- | E,,6- | E,,6- | E,,4 z2 | E,4 z2 | x6 | B,,,6 | B,,,6 | B,,,6 | x6 | E,4 z2 | x6 | %25
 A,,6 | A,,6 | E,,6 | E,,6 | B,,,6 | B,,,6 | E,,6 | E,,6 | A,,6 | A,,6 | E,,6 | x6 | x6 | x6 | x6 | %40
 x6 | x6 |[M:2/4] x4 |] %43

